X:1
T:Duncan Davidson. 2voices. Dix.12
T:Duncan Davidson. 2voices. Dix.12
T:a Strathspey an extremely rude song by Robbie Burns
C:a Strathspey
C:an extremely rude song by Robbie Burns
%%score 1 2
L:1/8
Q:1/4=120
M:4/4
K:E
V:1 treble 
V:2 treble 
V:1
|: E>GB>c BGBc | E2{d} e>c BGFG | E>GBc BGBa | g>af>g ee e2 ::{a} gf e/f/g/a/ bg"^tr"fe | %5
 d"^tr"Bf"^tr"B g"^tr"Bf"^tr"B |{a} gf e/f/g/a/ bgfe | caf"^tr"g{ef} ee e2 :| %8
V:2
|: E,2 E,2 E,2 z2 | E,2 E,2 E,2 B,,2 | E,2 E,2 E,2 E,2 | E,2 B,2 E,2 E,2 :: E,2 E,2 E,4 | %5
 B,,2 B,,2 B,,4 | E,2 E,2 E,2 G,2 | A,2 B,2 E,2 E,2 :| %8

